#絶対座標系（各行に書いてあるのが、そのまま座標ですよ)
G90 
#一秒間に0.25mm切り込んでいく
G00 F0.1
#ニクロム線に流す電流は2.0A
M104 S1.0
#切り始めは自分はここにいるという事にしておく
#Y方向に7mmぐらい離れた場所から切り込んでいくよ！(スタート地点Y111+7=118)
G92 X9.484269 Y34

###以下Inkscapeが出力したコード
#ここがスタートなのでここに移動するとしている
#Z軸は無視されるので弄る必要はないがF(=速度指定)は見つけ次第消す
G00 X9.484269 Y28.444530

G03 X9.378458 Y28.409380 Z-0.125000 I0.005315 J-0.192831 
G03 X9.254822 Y28.282063 Z-0.125000 I0.276184 J-0.391889
G02 X9.130276 Y28.174162 Z-0.125000 I-0.255499 J0.169083
G02 X8.969386 Y28.147421 Z-0.125000 I-0.127486 J0.269652
G03 X8.795499 Y28.139773 Z-0.125000 I-0.062659 J-0.556018
G03 X8.702842 Y28.093149 Z-0.125000 I0.039208 J-0.193303
G03 X8.653867 Y28.004127 Z-0.125000 I0.103107 J-0.114706
G03 X8.641015 Y27.726997 Z-0.125000 I1.133514 J-0.191429
G02 X8.629840 Y27.476825 Z-0.125000 I-1.049409 J-0.078462
G01 X8.596018 Y27.455646 Z-0.125000
G03 X8.350334 Y27.480245 Z-0.125000 I-0.187439 J-0.632859
G03 X8.233299 Y27.423351 Z-0.125000 I0.016122 J-0.181987
G03 X8.175773 Y27.310063 Z-0.125000 I0.165028 J-0.155049
G03 X8.158420 Y27.024566 Z-0.125000 I1.129403 J-0.211922
G03 X8.270352 Y26.647929 Z-0.125000 I0.879558 J0.056443
G03 X8.513239 Y26.395648 Z-0.125000 I0.609818 J0.344047
G02 X8.675235 Y26.254521 Z-0.125000 I-0.342626 J-0.556830
G02 X8.700781 Y26.167917 Z-0.125000 I-0.089009 J-0.073325
G02 X8.659614 Y26.088474 Z-0.125000 I-0.125287 J0.014535
G02 X8.543465 Y26.027091 Z-0.125000 I-0.181391 J0.202647
G02 X8.404508 Y26.023208 Z-0.125000 I-0.078400 J0.317333
G02 X8.277608 Y26.077239 Z-0.125000 I0.059558 J0.315917
G03 X7.925023 Y26.164009 Z-0.125000 I-0.285716 J-0.401253
G03 X7.687846 Y25.996520 Z-0.125000 I0.042786 J-0.312263
G03 X7.659119 Y25.871903 Z-0.125000 I0.228966 J-0.118403
G03 X7.694721 Y25.715546 Z-0.125000 I0.403923 J0.009741
G03 X7.787110 Y25.578522 Z-0.125000 I0.446296 J0.201259
G03 X7.920047 Y25.479574 Z-0.125000 I0.357986 J0.342180
G02 X8.034068 Y25.319439 Z-0.125000 I-0.096671 J-0.189494
G02 X7.966760 Y25.144339 Z-0.125000 I-0.191863 J-0.026734
G01 X7.810818 Y25.013811 Z-0.125000
G01 X7.901499 Y24.827644 Z-0.125000
G02 X7.973851 Y24.642261 Z-0.125000 I-1.118040 J-0.543165
G01 X7.968821 Y24.604033 Z-0.125000
G01 X7.937344 Y24.581851 Z-0.125000
G02 X7.792957 Y24.566596 Z-0.125000 I-0.144387 J0.675692
G03 X7.652917 Y24.532870 Z-0.125000 I-0.000000 J-0.307606
G03 X7.436764 Y24.384205 Z-0.125000 I0.461303 J-0.902182
G01 X7.233765 Y24.201469 Z-0.125000
G01 X7.308988 Y24.054803 Z-0.125000
G03 X7.394991 Y23.915490 Z-0.125000 I0.924246 J0.474366
G03 X7.627397 Y23.619608 Z-0.125000 I4.482459 J3.281612
G02 X7.858217 Y23.325939 Z-0.125000 I-4.258985 J-3.585046
G02 X7.870585 Y23.288147 Z-0.125000 I-0.051553 J-0.037792
G03 X7.114069 Y21.868080 Z-0.125000 I10.861087 J-6.697601
G03 X6.676977 Y20.636449 Z-0.125000 I6.976863 J-3.169383
G03 X6.487698 Y19.610310 Z-0.125000 I7.221567 J-1.862598
G03 X6.447187 Y18.601991 Z-0.125000 I6.946755 J-0.784077
G03 X6.580304 Y16.861047 Z-0.125000 I19.734329 J0.633375
G03 X6.667017 Y16.787700 Z-0.125000 I0.082868 J0.010038
G01 X6.687908 Y16.798604 Z-0.125000
G03 X7.077822 Y17.376096 Z-0.125000 I-19.311840 J13.459463
G02 X8.119825 Y18.862951 Z-0.125000 I23.605988 J-15.434768
G01 X8.182468 Y18.848613 Z-0.125000
G02 X8.182389 Y18.784400 Z-0.125000 I-0.162645 J-0.031909
G02 X8.088011 Y18.373571 Z-0.125000 I-6.973388 J1.385715
G03 X8.011662 Y17.959053 Z-0.125000 I2.783866 J-0.727046
G03 X7.964699 Y17.245224 Z-0.125000 I8.244775 J-0.900883
G01 X7.948556 Y16.527000 Z-0.125000
G01 X8.073585 Y16.763660 Z-0.125000
G02 X8.199273 Y16.935432 Z-0.125000 I0.647473 J-0.341895
G01 X8.237770 Y16.930256 Z-0.125000
G02 X8.258065 Y16.855111 Z-0.125000 I-0.139052 J-0.077869
G02 X8.263531 Y15.416845 Z-0.125000 I-54.092472 J-0.924713
G01 X8.249795 Y13.973529 Z-0.125000
G01 X8.020347 Y13.758165 Z-0.125000
G03 X7.803010 Y13.537917 Z-0.125000 I2.751312 J-2.932302
G01 X7.790899 Y13.506705 Z-0.125000
G03 X7.821614 Y13.417706 Z-0.125000 I0.144299 J0.000000
G03 X8.241550 Y12.931734 Z-0.125000 I5.268818 J4.128445
G02 X8.392806 Y12.707314 Z-0.125000 I-0.588052 J-0.559520
G02 X8.476494 Y12.413066 Z-0.125000 I-0.941826 J-0.426894
G02 X8.554840 Y10.816064 Z-0.125000 I-9.969566 J-1.289510
G02 X8.365893 Y8.796896 Z-0.125000 I-16.172219 J0.494913
G03 X8.361034 Y8.662964 Z-0.125000 I0.555009 J-0.087191
G01 X8.378255 Y8.647121 Z-0.125000
G03 X8.477999 Y8.703348 Z-0.125000 I0.000000 J0.116583
G03 X9.066254 Y9.784053 Z-0.125000 I-11.523932 J6.973227
G03 X9.491314 Y10.746847 Z-0.125000 I-12.783402 J6.218917
G03 X9.733644 Y11.461272 Z-0.125000 I-6.780914 J2.698370
G02 X9.844945 Y11.764525 Z-0.125000 I2.033892 J-0.574436
G01 X9.871725 Y11.763532 Z-0.125000
G02 X9.969370 Y11.344360 Z-0.125000 I-1.611870 J-0.596439
G02 X10.027667 Y10.257707 Z-0.125000 I-10.887877 J-1.129012
G03 X10.040746 Y9.665441 Z-0.125000 I16.134181 J0.060004
G03 X10.058238 Y9.504822 Z-0.125000 I1.187287 J0.048038
G01 X10.086747 Y9.345423 Z-0.125000
G01 X10.134834 Y9.464973 Z-0.125000
G03 X10.314550 Y10.029799 Z-0.125000 I-3.763609 J1.508509
G03 X10.526062 Y11.099604 Z-0.125000 I-13.360691 J3.197367
G02 X10.563575 Y11.187147 Z-0.125000 I0.190665 J-0.029892
G01 X10.591669 Y11.185117 Z-0.125000
G02 X10.735917 Y10.816405 Z-0.125000 I-1.261330 J-0.706034
G02 X11.006941 Y9.454672 Z-0.125000 I-17.281444 J-4.147337
G01 X11.078041 Y9.005741 Z-0.125000
G01 X11.213719 Y9.135591 Z-0.125000
G03 X11.400912 Y9.342450 Z-0.125000 I-1.352492 J1.412042
G03 X12.004764 Y10.146116 Z-0.125000 I-20.037945 J15.684637
G01 X12.088916 Y10.262900 Z-0.125000
G01 X12.239705 Y9.933800 Z-0.125000
G03 X12.398708 Y9.617797 Z-0.125000 I4.348760 J1.990159
G01 X12.420723 Y9.604786 Z-0.125000
G01 X12.440481 Y9.618253 Z-0.125000
G03 X12.499037 Y9.804317 Z-0.125000 I-1.309477 J0.514346
G02 X12.557074 Y9.996349 Z-0.125000 I1.680166 J-0.403007
G02 X12.579756 Y10.024168 Z-0.125000 I0.051628 J-0.018939
G01 X12.614166 Y10.029575 Z-0.125000
G02 X12.809890 Y9.967131 Z-0.125000 I-0.389231 J-1.557945
G03 X13.285738 Y9.810427 Z-0.125000 I1.606587 J4.077759
G03 X14.264547 Y9.579019 Z-0.125000 I4.507496 J16.879954
G03 X15.579298 Y9.426776 Z-0.125000 I1.518442 J7.359973
G03 X17.207177 Y9.498952 Z-0.125000 I0.309481 J11.413810
G03 X19.428511 Y10.160256 Z-0.125000 I-0.775151 J6.665159
G03 X21.332766 Y11.558159 Z-0.125000 I-3.111837 J6.234976
G01 X21.607896 Y11.843937 Z-0.125000
G01 X21.584539 Y11.133273 Z-0.125000
G02 X21.496314 Y10.086755 Z-0.125000 I-10.270479 J0.338863
G02 X21.316966 Y9.167172 Z-0.125000 I-8.093265 J1.101156
G03 X21.345461 Y8.941161 Z-0.125000 I0.301002 J-0.076853
G03 X21.447834 Y8.928101 Z-0.125000 I0.055924 J0.030610
G03 X22.238913 Y9.988428 Z-0.125000 I-4.251150 J3.996922
G03 X22.596445 Y10.900045 Z-0.125000 I-2.765025 J1.610351
G02 X22.656325 Y11.107918 Z-0.125000 I1.750497 J-0.391685
G01 X22.674759 Y11.120940 Z-0.125000
G01 X22.690819 Y11.107177 Z-0.125000
G02 X22.729029 Y10.771549 Z-0.125000 I-4.132306 J-0.640430
G03 X22.756756 Y10.422729 Z-0.125000 I27.512120 J2.011434
G03 X22.779521 Y10.183172 Z-0.125000 I13.208074 J1.134259
G01 X22.828932 Y10.177134 Z-0.125000
G03 X22.967064 Y10.701812 Z-0.125000 I-2.851659 J1.031282
G02 X23.069635 Y11.102200 Z-0.125000 I2.459331 J-0.416691
G01 X23.105489 Y11.101015 Z-0.125000
G02 X23.221154 Y10.589675 Z-0.125000 I-5.605832 J-1.536798
G02 X23.333218 Y9.830084 Z-0.125000 I-12.242819 J-2.194268
G03 X23.448781 Y9.182725 Z-0.125000 I5.353568 J0.621695
G01 X23.493625 Y9.167849 Z-0.125000
G03 X23.699891 Y9.410666 Z-0.125000 I-0.588061 J0.708558
G03 X24.251009 Y10.459721 Z-0.125000 I-10.974012 J6.434448
G03 X24.569640 Y11.248666 Z-0.125000 I-7.228200 J3.378070
G03 X24.812264 Y12.095369 Z-0.125000 I-8.104896 J2.780583
G02 X24.887669 Y12.316472 Z-0.125000 I1.128044 J-0.261300
G01 X24.912560 Y12.314514 Z-0.125000
G02 X25.000612 Y11.663995 Z-0.125000 I-2.299383 J-0.642457
G02 X24.906360 Y10.442506 Z-0.125000 I-8.326606 J0.028118
G03 X24.868326 Y10.182943 Z-0.125000 I25.829429 J-3.917344
G03 X24.844190 Y10.003537 Z-0.125000 I13.290076 J-1.879280
G01 X24.821161 Y9.824270 Z-0.125000
G01 X24.907374 Y9.923866 Z-0.125000
G03 X25.122113 Y10.265461 Z-0.125000 I-1.015558 J0.876710
G03 X25.442869 Y11.154581 Z-0.125000 I-6.771903 J2.945426
G03 X25.578675 Y11.647879 Z-0.125000 I-18.092252 J5.246187
G03 X25.585757 Y11.703108 Z-0.125000 I-0.211811 J0.055229
G02 X25.597790 Y11.747172 Z-0.125000 I0.086692 J-0.000000
G01 X25.618732 Y11.759129 Z-0.125000
G01 X25.643889 Y11.736293 Z-0.125000
G02 X25.771237 Y10.185938 Z-0.125000 I-52.765871 J-5.114659
G01 X25.838496 Y10.147000 Z-0.125000
G03 X25.928900 Y10.262900 Z-0.125000 I-0.073440 J0.150493
G03 X26.040418 Y10.895478 Z-0.125000 I-9.353545 J1.975067
G03 X26.228759 Y12.377704 Z-0.125000 I-50.987812 J7.231918
G02 X26.286899 Y12.699342 Z-0.125000 I2.427470 J-0.272718
G01 X26.309478 Y12.699522 Z-0.125000
G02 X26.441898 Y11.973738 Z-0.125000 I-4.384140 J-1.174862
G02 X26.593541 Y9.844138 Z-0.125000 I-37.920820 J-3.770437
G01 X26.603147 Y9.624654 Z-0.125000
G01 X26.751530 Y9.910489 Z-0.125000
G03 X27.241525 Y11.153495 Z-0.125000 I-5.745138 J2.982820
G03 X27.701610 Y13.315415 Z-0.125000 I-17.062915 J4.761134
G02 X27.798616 Y13.888244 Z-0.125000 I14.035126 J-2.082136
G02 X27.818050 Y13.926088 Z-0.125000 I0.074014 J-0.014098
G01 X27.876783 Y13.903705 Z-0.125000
G02 X27.877130 Y12.034888 Z-0.125000 I-30.031109 J-0.939986
G03 X27.925941 Y11.433191 Z-0.125000 I2.702926 J-0.083563
G01 X27.994943 Y11.432118 Z-0.125000
G03 X28.353367 Y13.822610 Z-0.125000 I-15.766411 J3.586092
G03 X28.442159 Y17.466430 Z-0.125000 I-36.622025 J2.715395
G02 X28.428814 Y18.519996 Z-0.125000 I41.890843 J1.057486
G01 X28.442159 Y18.552184 Z-0.125000
G01 X28.470723 Y18.559523 Z-0.125000
G02 X28.552421 Y18.520569 Z-0.125000 I-0.077932 J-0.268597
G03 X28.694197 Y18.512412 Z-0.125000 I0.077488 J0.110632
G03 X29.027113 Y18.777496 Z-0.125000 I-0.577135 J1.066411
G03 X29.146753 Y18.958883 Z-0.125000 I-0.588911 J0.518586
G03 X29.177904 Y19.093847 Z-0.125000 I-0.290006 J0.138014
G02 X29.195116 Y19.235996 Z-0.125000 I0.632189 J-0.004433
G02 X29.236299 Y19.340126 Z-0.125000 I0.383155 J-0.091326
G03 X29.312167 Y19.610398 Z-0.125000 I-0.500998 J0.286420
G03 X29.248321 Y19.770853 Z-0.125000 I-0.218200 J0.006108
G03 X29.096736 Y19.834890 Z-0.125000 I-0.154659 J-0.154674
G03 X28.949149 Y19.774946 Z-0.125000 I-0.002875 J-0.204579
G02 X28.847460 Y19.761512 Z-0.125000 I-0.059606 J0.059608
G02 X28.521509 Y20.021566 Z-0.125000 I0.693184 J1.203141
G02 X28.345493 Y20.308495 Z-0.125000 I0.632123 J0.585226
G02 X28.020366 Y21.379704 Z-0.125000 I8.916743 J3.291307
G03 X27.838420 Y22.078626 Z-0.125000 I-18.567438 J-4.460388
G03 X27.775117 Y22.253528 Z-0.125000 I-1.216347 J-0.341330
G02 X27.712879 Y22.421530 Z-0.125000 I1.237268 J0.553891
G01 X27.718442 Y22.443475 Z-0.125000
G01 X27.740403 Y22.449928 Z-0.125000
G02 X27.855836 Y22.413941 Z-0.125000 I-0.145893 J-0.671088
G03 X28.032558 Y22.397274 Z-0.125000 I0.115428 J0.278660
G03 X28.269047 Y22.499813 Z-0.125000 I-0.128984 J0.621463
G03 X28.340123 Y22.597170 Z-0.125000 I-0.108185 J0.153604
G03 X28.378620 Y22.848450 Z-0.125000 I-0.800841 J0.251280
G03 X28.258972 Y23.210195 Z-0.125000 I-0.606675 J-0.000000
G03 X28.021398 Y23.329673 Z-0.125000 I-0.237574 J-0.176460
G02 X27.851796 Y23.475107 Z-0.125000 I0.000000 J0.171610
G02 X27.961630 Y23.716436 Z-0.125000 I0.238995 J0.036887
G03 X28.084185 Y23.881473 Z-0.125000 I-0.152353 J0.241160
G03 X28.053341 Y24.047897 Z-0.125000 I-0.186205 J0.051560
G02 X28.049740 Y24.190791 Z-0.125000 I0.100110 J0.074015
G02 X28.235728 Y24.322342 Z-0.125000 I0.263115 J-0.174744
G03 X28.396532 Y24.435200 Z-0.125000 I-0.067144 J0.266658
G03 X28.395452 Y24.559005 Z-0.125000 I-0.090581 J0.061116
G02 X28.379370 Y24.638454 Z-0.125000 I0.083027 J0.058158
G02 X28.438386 Y24.758908 Z-0.125000 I0.271468 J-0.058319
G03 X28.507781 Y24.888610 Z-0.125000 I-0.272268 J0.229087
G03 X28.538341 Y25.103081 Z-0.125000 I-0.737301 J0.214471
G03 X28.401104 Y25.490980 Z-0.125000 I-0.616813 J-0.000000
G03 X28.016244 Y25.748487 Z-0.125000 I-0.607170 J-0.491101
G02 X27.854674 Y25.832546 Z-0.125000 I0.136533 J0.459737
G02 X27.820114 Y25.904087 Z-0.125000 I0.056769 J0.071541
G02 X27.843670 Y25.988491 Z-0.125000 I0.162999 J-0.000000
G02 X27.917665 Y26.065182 Z-0.125000 I0.205926 J-0.124645
G03 X28.091228 Y26.413436 Z-0.125000 I-0.211496 J0.322782
G03 X27.879879 Y26.635023 Z-0.125000 I-0.238366 J-0.015768
G02 X27.771516 Y26.709213 Z-0.125000 I0.015851 J0.139387
G02 X27.679284 Y27.017321 Z-0.125000 I0.744310 J0.390667
G03 X27.591525 Y27.388551 Z-0.125000 I-1.423464 J-0.140517
G03 X27.517503 Y27.439461 Z-0.125000 I-0.074023 J-0.028360
G03 X27.357067 Y27.397154 Z-0.125000 I-0.000000 J-0.325358
G03 X27.062045 Y27.181507 Z-0.125000 I0.781513 J-1.378795
G02 X26.902706 Y27.097517 Z-0.125000 I-0.236468 J0.255472
G02 X26.284051 Y27.004613 Z-0.125000 I-0.932894 J4.105896
G03 X24.640911 Y26.823326 Z-0.125000 I1.754202 J-23.436792
G03 X22.300320 Y26.422749 Z-0.125000 I7.023345 J-48.076231
G02 X21.787122 Y26.329849 Z-0.125000 I-3.381958 J17.218519
G02 X21.693041 Y26.322106 Z-0.125000 I-0.094081 J0.567728
G02 X21.600462 Y26.334971 Z-0.125000 I-0.000000 J0.339552
G02 X21.267808 Y26.442666 Z-0.125000 I1.290377 J4.553388
G03 X19.960672 Y26.819816 Z-0.125000 I-3.375939 J-9.246679
G03 X18.299761 Y27.080519 Z-0.125000 I-3.153613 J-14.670241
G03 X16.997487 Y27.124603 Z-0.125000 I-0.985590 J-9.857921
G03 X15.830451 Y27.000831 Z-0.125000 I0.254766 J-7.965967
G03 X14.749084 Y26.791615 Z-0.125000 I7.983715 J-44.164405
G03 X14.433845 Y26.712992 Z-0.125000 I0.799792 J-3.878068
G02 X14.104363 Y26.699700 Z-0.125000 I-0.191308 J0.651877
G02 X13.066434 Y26.997055 Z-0.125000 I1.481077 J7.129901
G03 X12.094816 Y27.310496 Z-0.125000 I-4.291533 J-11.640436
G03 X11.042623 Y27.558993 Z-0.125000 I-3.712127 J-13.366100
G02 X10.405839 Y27.689718 Z-0.125000 I6.542290 J33.484941
G02 X10.277341 Y27.723523 Z-0.125000 I0.309073 J1.435966
G02 X9.951679 Y27.915229 Z-0.125000 I0.247368 J0.792679
G02 X9.865502 Y28.116472 Z-0.125000 I0.191886 J0.201243
G03 X9.854820 Y28.150798 Z-0.125000 I-0.060491 J-0.000000
G03 X9.741849 Y28.295768 Z-0.125000 I-1.292812 J-0.890951
G03 X9.594007 Y28.416845 Z-0.125000 I-0.439637 J-0.386022
G03 X9.484234 Y28.444496 Z-0.125000 I-0.103815 J-0.180417
G01 X9.484224 Y28.444499 Z-0.125000
G00 Z5.000000

G00 X9.484269 Y28.444530
G00 X9.484269 Y34
M104 S0